icons/EyeClosed_filled.svg

<svg width="24" height="24" viewBox="0 0 24 24" fill="none" xmlns="http://www.w3.org/2000/svg">
<path fill-rule="evenodd" clip-rule="evenodd" d="M2.44101,10.882c0.61748,-0.3088 1.36832,-0.0585 1.67705,0.559l0.00227,0.0045c0.46439,0.9288 2.40216,4.8045 7.87967,4.8045c5.4776,0 7.4153,-3.8757 7.8797,-4.8045l0.0023,-0.0045c0.3087,-0.6175 1.0596,-0.8678 1.677,-0.559c0.6175,0.3087 0.8678,1.0595 0.5591,1.677c-0.2358,0.4715 -0.8578,1.7122 -2.0682,2.9602l1.9673,2.7542c0.4013,0.5618 0.2711,1.3425 -0.2906,1.7438c-0.5618,0.4012 -1.3425,0.2711 -1.7437,-0.2907l-1.8774,-2.6282c-0.6687,0.4202 -1.4346,0.7935 -2.3088,1.0784l0.4363,2.6178c0.1135,0.681 -0.3465,1.325 -1.0275,1.4385c-0.6809,0.1135 -1.325,-0.3465 -1.4385,-1.0275l-0.4202,-2.5212c-0.4295,0.0429 -0.8782,0.0657 -1.3468,0.0657c-0.4685,0 -0.9172,-0.0228 -1.3468,-0.0657l-0.4202,2.5212c-0.1135,0.681 -0.75751,1.141 -1.43848,1.0275c-0.68096,-0.1135 -1.14098,-0.7575 -1.02749,-1.4385l0.43629,-2.6178c-0.87416,-0.2849 -1.6401,-0.6582 -2.30879,-1.0784l-1.87734,2.6282c-0.40126,0.5618 -1.18195,0.6919 -1.74371,0.2907c-0.56177,-0.4013 -0.69188,-1.182 -0.29062,-1.7438l1.96732,-2.7542c-1.21039,-1.248 -1.83247,-2.4887 -2.06818,-2.9602c-0.30874,-0.6175 -0.05846,-1.3683 0.55901,-1.677z" fill="#002B51"/>
</svg>

<svg width="24" height="24" viewBox="0 0 24 24" fill="none" xmlns="http://www.w3.org/2000/svg">
<path fill-rule="evenodd" clip-rule="evenodd" d="M2.44101 10.882C3.05849 10.5732 3.80933 10.8235 4.11806 11.441L4.12033 11.4455C4.58472 12.3743 6.52249 16.25 12 16.25C17.4776 16.25 19.4153 12.3743 19.8797 11.4455L19.882 11.441C20.1907 10.8235 20.9416 10.5732 21.559 10.882C22.1765 11.1907 22.4268 11.9415 22.1181 12.559C21.8823 13.0305 21.2603 14.2712 20.0499 15.5192L22.0172 18.2734C22.4185 18.8352 22.2883 19.6159 21.7266 20.0172C21.1648 20.4184 20.3841 20.2883 19.9829 19.7265L18.1055 17.0983C17.4368 17.5185 16.6709 17.8918 15.7967 18.1767L16.233 20.7945C16.3465 21.4755 15.8865 22.1195 15.2055 22.233C14.5246 22.3465 13.8805 21.8865 13.767 21.2055L13.3468 18.6843C12.9173 18.7272 12.4686 18.75 12 18.75C11.5315 18.75 11.0828 18.7272 10.6532 18.6843L10.233 21.2055C10.1195 21.8865 9.47549 22.3465 8.79452 22.233C8.11356 22.1195 7.65354 21.4755 7.76703 20.7945L8.20332 18.1767C7.32916 17.8918 6.56322 17.5185 5.89453 17.0983L4.01719 19.7265C3.61593 20.2883 2.83524 20.4184 2.27348 20.0172C1.71171 19.6159 1.5816 18.8352 1.98286 18.2734L3.95018 15.5192C2.73979 14.2712 2.11771 13.0305 1.882 12.559C1.57326 11.9415 1.82354 11.1907 2.44101 10.882Z" fill="#002B51"/>
</svg>
